resources/svg/device.svg

<svg viewBox="0 0 24 24"><path fill="none" stroke="currentColor" stroke-linecap="round" stroke-linejoin="round" stroke-width="2" d="M2 7h20v14h-6l-4-4l-4 4H2V7zm4-5l5 5h2l5-5"/></svg>

<svg xmlns="http://www.w3.org/2000/svg" viewBox="0 0 24 24" fill="currentColor"><path fill="none" stroke="currentColor" stroke-linecap="round" stroke-linejoin="round" stroke-width="2" d="M2,7 L22,7 L22,21 L16,21 L12,17 L8,21 L2,21 L2,7 Z M6,2 L11,7 L12,7 L13,7 L18,2"/></svg>
